neat/src/img/stripe.svg

<?xml version="1.0" encoding="UTF-8"?>
<svg width="24px" height="24px" viewBox="0 0 24 24" version="1.1" xmlns="http://www.w3.org/2000/svg" xmlns:xlink="http://www.w3.org/1999/xlink">
    <!-- Generator: Sketch 48.2 (47327) - http://www.bohemiancoding.com/sketch -->
    <title>if_Asset_32_2001659</title>
    <desc>Created with Sketch.</desc>
    <defs></defs>
    <g id="Page-1" stroke="none" stroke-width="1" fill="none" fill-rule="evenodd">
        <g id="if_Asset_32_2001659">
            <rect id="Rectangle-path" fill="#6772E5" fill-rule="nonzero" x="0" y="0" width="24" height="24" rx="6.48"></rect>
            <path d="M10.5967272,9.86788492 C10.5967272,9.30728355 11.0584692,9.05541916 11.8037369,9.05541916 C13.0387322,9.08220555 14.2506205,9.39650248 15.3437589,9.97350547 L15.3437589,6.65052053 C14.2190559,6.20816933 13.0198573,5.98748314 11.8118377,6.00054793 C8.92797537,6.00054793 7,7.51173423 7,10.0628767 C7,14.0114603 12.4112922,13.3696123 12.4112922,15.0757904 C12.4112922,15.7338877 11.8361399,15.9451288 11.0503684,15.9451288 C9.66609883,15.8685698 8.31842919,15.4708623 7.11341032,14.7833027 L7.11341032,18.1875342 C8.34128574,18.7196911 9.66415836,18.9961034 11.001764,19 C13.9585329,19 15.9999186,17.5375616 15.9999186,14.9376712 C16.0242208,10.7047246 10.5967272,11.4684425 10.5967272,9.86788492 Z" id="Shape" fill="#FFFFFF"></path>
        </g>
    </g>
</svg>

<svg width="24" height="24" viewBox="0 0 24 24" xmlns="http://www.w3.org/2000/svg"><title>if_Asset_32_2001659</title><g fill="none" fill-rule="evenodd"><rect fill="#6772E5" fill-rule="nonzero" width="24" height="24" rx="6.48"/><path d="M10.597 9.868c0-.56.461-.813 1.207-.813a7.953 7.953 0 0 1 3.54.919V6.65A9.372 9.372 0 0 0 11.812 6C8.928 6 7 7.51 7 10.063c0 3.948 5.411 3.307 5.411 5.013 0 .658-.575.87-1.36.87a8.94 8.94 0 0 1-3.938-1.163v3.405a9.85 9.85 0 0 0 3.889.812C13.959 19 16 17.538 16 14.938c.024-4.233-5.403-3.47-5.403-5.07z" fill="#FFF"/></g></svg>
